public/assets/img/material-icons/grading.svg

<svg height="24" viewBox="0 0 24 24" width="24" xmlns="http://www.w3.org/2000/svg"><path d="m4 7h16v2h-16zm0 6h16v-2h-16zm0 4h7v-2h-7zm0 4h7v-2h-7zm11.41-2.83-1.41-1.42-1.41 1.41 2.82 2.84 4.59-4.58-1.42-1.42zm-11.41-15.17v2h16v-2z"/></svg>

<svg xmlns="http://www.w3.org/2000/svg" width="24" height="24" viewBox="0 0 24 24"><path d="M4 7h16v2H4V7zm0 6h16v-2H4v2zm0 4h7v-2H4v2zm0 4h7v-2H4v2zm11.41-2.83L14 16.75l-1.41 1.41L15.41 21 20 16.42 18.58 15l-3.17 3.17zM4 3v2h16V3H4z"/></svg>
